X:1
T:Title
%%score { ( 1 3 4 ) | 2 }
L:1/8
M:4/4
K:F
V:1 treble nm="Grand Piano"
V:3 treble 
V:4 treble 
V:2 bass 
V:1
 z4 z2[Q:1/4=106] (3AGF | c6 z2 | E6 z2 | [Bd]2 [Bd]2 [ce]2 [Bd]2 | [Ac]6 z2 | c6 z2 | e6 z2 | %7
 f2 A2 =B2 G2 |[M:3/4] [CEGc]6[K:bass] |[M:1/4][K:treble] c>=B |[M:4/4] .E2 c2 B2 c2 | %11
 A2 c2 A2 c2 | B2 c2 e2 c2 | f2 d2 c4 | B2 c2 B2 c2 | A2 c2 A2 c2 | %16
 [DG][DG][DG][DA] [EB]2 [B,CE]2 |[M:3/4] [A,CF]6 |] %18
V:2
 z8 | F,,2 [A,C]2 C2 z2 | G,,2 [E,B,]2 B,2[K:treble] (3EGB | C,,2 [B,CE]2 C,,2 [B,CE]2 | %4
 F,,2 A,2 A,2 z2 | F,,2 [A,C]2 C2 z2 | E,,2 [A,C]2 C2 z2 | G,,2 [G,=B,F]2 G,,2 [G,B,F]2 | %8
[M:3/4] [C,,C,]2 C,,>C,, C,,2 |[M:1/4][K:treble] A>_A | %10
[M:4/4][K:bass] [G,,G,]2 [C,,C,]2 [G,,G,]2 [C,,C,]2 | [F,,F,]2 [C,,C,]2 [F,,F,]2 [C,,C,]2 | %12
 [G,,G,]2 [C,,C,]2 [G,,G,]2 [C,,C,]2 | [F,,F,]2 [C,,C,]2 [F,,F,]2 [C,,C,]2 | %14
 [G,,G,]2 [C,,C,]2 [G,,G,]2 [C,,C,]2 | [F,,F,]2 [C,,C,]2 [F,,F,]2 [C,,C,]2 | %16
 B,,B,,B,,B,, [C,C]2 [C,,C,]2 |[M:3/4] [F,,C,]6 |] %18
V:3
 x8 | z2 F2 (3:2:2z2 A (3AGF | z2 C2 C2 z2 | x8 | z2 [CF]2 C2 (3AGF | z2 F2 (3:2:2z2 c (3c=BA | %6
 z2 E2 E2 (3cde | x8 |[M:3/4] z2[K:bass] C,>C, C,2 |[M:1/4][K:treble] x2 | %10
[M:4/4] B-[CB] z C EC z C | FC z C FC z C | EC z C BEBE | AFAF ACFC | EC z C EC z C | %15
 FC z C FC z C | x8 |[M:3/4] x6 |] %18
V:4
 x8 | z4 F2 z2 | x8 | x8 | x8 | z4 F2 z2 | x8 | x8 |[M:3/4] x2[K:bass] x4 |[M:1/4][K:treble] x2 | %10
[M:4/4] x8 | x8 | x8 | x8 | x8 | x8 | x8 |[M:3/4] x6 |] %18

